Costumes/y-block.svg

<?xml version="1.0" encoding="UTF-8" standalone="no"?>
<svg
   version="1.1"
   width="62.02087"
   height="79.300636"
   id="svg5"
   sodipodi:docname="y-block.svg"
   xmlns:inkscape="http://www.inkscape.org/namespaces/inkscape"
   xmlns:sodipodi="http://sodipodi.sourceforge.net/DTD/sodipodi-0.dtd"
   xmlns="http://www.w3.org/2000/svg"
   xmlns:svg="http://www.w3.org/2000/svg">
  <defs
     id="defs9" />
  <sodipodi:namedview
     id="namedview7"
     pagecolor="#ffffff"
     bordercolor="#000000"
     borderopacity="0.25"
     inkscape:showpageshadow="2"
     inkscape:pageopacity="0.0"
     inkscape:pagecheckerboard="0"
     inkscape:deskcolor="#d1d1d1" />
  <!-- Exported by Scratch - http://scratch.mit.edu/ -->
  <g
     id="ID0.4984838617965579"
     transform="translate(-0.88388139,-0.51876465)">
    <path
       id="ID0.9221888086758554"
       fill="#ff9400"
       d="m 324,351 c 5.431,0.902 7.764,4.902 14,5 -8.414,10.586 -11.263,26.737 -20,37 -0.304,14.565 2.541,18.345 4,33 -3.357,2.309 -7.662,3.671 -14,3 -1.941,-10.655 1.494,-22.322 -1,-31 -1.347,-4.684 -7.949,-6.292 -11,-10 -11.44,-16.995 -16.362,-19.603 -19,-27 0.167,-3.073 4.579,-5.673 8,-6 9.763,6.482 14.118,18.549 23,26 6.267,-9.067 10.962,-19.705 16,-30 z"
       transform="matrix(0.8316465,0,0,0.8316465,-222.35,-288.6)" />
    <path
       id="ID0.5840734699741006"
       d="m 315,443 c -4.667,0 -9.333,0 -14,0 -4.524,-14.826 0.137,-27.377 -4,-41 -16.24,-16.837 -20.993,-20.694 -28,-27 -1.23,-1.568 -0.127,-1.373 0,-2 2.48,-1.533 3.791,-4.209 7,-5 0.691,-4.024 -4.211,-2.456 -4,-6 3.748,-5.585 9.595,-9.071 14,-14 1,0 2.219,-0.796 3,0 3.039,3.322 4.953,7.488 7.65,11.1 2.967,4.051 5.587,13.496 9.35,11.9 5.399,-2.466 5.067,-14.266 9,-20 4.474,0.143 5.554,1.786 6,-3 2.333,0 4.667,0 7,0 0,0.333 0,0.667 0,1 5.912,1.421 10.531,4.135 15,7 0,0.667 0,1.333 0,2 -11.847,7.82 -11.758,27.575 -22,37 1.697,11.303 3.303,22.697 5,34 -5.101,1.312 -3.998,6.771 -3,12 -1.873,1.46 -6.627,0.039 -8,2 z m -7,-62 c -8.882,-7.451 -15.357,-21.099 -23,-26 -3.403,1.263 -7.222,2.97 -8,6 10.091,14.137 13.32,20.025 19,27 3.073,3.754 9.642,5.299 11,10 2.596,8.987 -0.941,20.345 1,31 6.338,0.671 10.643,-0.691 14,-3 -1.459,-14.655 -4.304,-18.435 -4,-33 8.737,-10.263 11.586,-26.414 20,-37 -6.236,-0.098 -8.569,-4.098 -14,-5 -5.038,10.295 -9.733,20.933 -16,30 z"
       transform="matrix(0.8316465,0,0,0.8316465,-222.35,-288.6)" />
  </g>
</svg>

<svg version="1.1" width="63" height="80" xmlns="http://www.w3.org/2000/svg" xmlns:xlink="http://www.w3.org/1999/xlink">
  <!-- Exported by Scratch - http://scratch.mit.edu/ -->
  <g id="ID0.4984838617965579">
    <path id="ID0.9221888086758554" fill="#FF9400" d="M 324 351 C 329.431 351.902 331.764 355.902 338 356 C 329.586 366.586 326.737 382.737 318 393 C 317.696 407.565 320.541 411.345 322 426 C 318.643 428.309 314.338 429.671 308 429 C 306.059 418.345 309.494 406.678 307 398 C 305.653 393.316 299.051 391.708 296 388 C 284.560 371.005 279.638 368.397 277 361 C 277.167 357.927 281.579 355.327 285 355 C 294.763 361.482 299.118 373.549 308 381 C 314.267 371.933 318.962 361.295 324 351 Z " transform="matrix(0.8316465020179749, 0, 0, 0.8316465020179749, -222.35, -288.6)"/>
    <path id="ID0.5840734699741006" d="M 315 443 C 310.333 443 305.667 443 301 443 C 296.476 428.174 301.137 415.623 297 402 C 280.760 385.163 276.007 381.306 269 375 C 267.770 373.432 268.873 373.627 269 373 C 271.480 371.467 272.791 368.791 276 368 C 276.691 363.976 271.789 365.544 272 362 C 275.748 356.415 281.595 352.929 286 348 C 287 348 288.219 347.204 289 348 C 292.039 351.322 293.953 355.488 296.650 359.100 C 299.617 363.151 302.237 372.596 306 371 C 311.399 368.534 311.067 356.734 315 351 C 319.474 351.143 320.554 352.786 321 348 C 323.333 348 325.667 348 328 348 C 328 348.333 328 348.667 328 349 C 333.912 350.421 338.531 353.135 343 356 C 343 356.667 343 357.333 343 358 C 331.153 365.820 331.242 385.575 321 395 C 322.697 406.303 324.303 417.697 326 429 C 320.899 430.312 322.002 435.771 323 441 C 321.127 442.460 316.373 441.039 315 443 Z M 308 381 C 299.118 373.549 292.643 359.901 285 355 C 281.597 356.263 277.778 357.970 277 361 C 287.091 375.137 290.320 381.025 296 388 C 299.073 391.754 305.642 393.299 307 398 C 309.596 406.987 306.059 418.345 308 429 C 314.338 429.671 318.643 428.309 322 426 C 320.541 411.345 317.696 407.565 318 393 C 326.737 382.737 329.586 366.586 338 356 C 331.764 355.902 329.431 351.902 324 351 C 318.962 361.295 314.267 371.933 308 381 Z " transform="matrix(0.8316465020179749, 0, 0, 0.8316465020179749, -222.35, -288.6)"/>
  </g>
</svg>
